svg/deluge.svg

<?xml version="1.0" encoding="UTF-8" standalone="no"?>
<!-- Created with Inkscape (http://www.inkscape.org/) -->
<svg
   xmlns:dc="http://purl.org/dc/elements/1.1/"
   xmlns:cc="http://web.resource.org/cc/"
   xmlns:rdf="http://www.w3.org/1999/02/22-rdf-syntax-ns#"
   xmlns:svg="http://www.w3.org/2000/svg"
   xmlns="http://www.w3.org/2000/svg"
   xmlns:xlink="http://www.w3.org/1999/xlink"
   xmlns:sodipodi="http://sodipodi.sourceforge.net/DTD/sodipodi-0.dtd"
   xmlns:inkscape="http://www.inkscape.org/namespaces/inkscape"
   width="48px"
   height="48px"
   id="svg3440"
   sodipodi:version="0.32"
   inkscape:version="0.45"
   sodipodi:docbase="/home/zach/deluge/trunk"
   sodipodi:docname="deluge.svg"
   inkscape:export-filename="/home/zach/deluge.png"
   inkscape:export-xdpi="480"
   inkscape:export-ydpi="480"
   inkscape:output_extension="org.inkscape.output.svg.inkscape"
   sodipodi:modified="TRUE">
  <defs
     id="defs3">
    <linearGradient
       inkscape:collect="always"
       id="linearGradient2973">
      <stop
         style="stop-color:#eeeeec;stop-opacity:1;"
         offset="0"
         id="stop2975" />
      <stop
         style="stop-color:#eeeeec;stop-opacity:0;"
         offset="1"
         id="stop2977" />
    </linearGradient>
    <linearGradient
       id="linearGradient4126">
      <stop
         style="stop-color:#ffffff;stop-opacity:1.0000000;"
         offset="0.0000000"
         id="stop4128" />
      <stop
         style="stop-color:#ffffff;stop-opacity:0.16494845;"
         offset="1.0000000"
         id="stop4130" />
    </linearGradient>
    <linearGradient
       inkscape:collect="always"
       id="linearGradient4114">
      <stop
         style="stop-color:#000000;stop-opacity:1;"
         offset="0"
         id="stop4116" />
      <stop
         style="stop-color:#000000;stop-opacity:0;"
         offset="1"
         id="stop4118" />
    </linearGradient>
    <linearGradient
       id="linearGradient3962">
      <stop
         style="stop-color:#d3e9ff;stop-opacity:1.0000000;"
         offset="0.0000000"
         id="stop3964" />
      <stop
         style="stop-color:#d3e9ff;stop-opacity:1.0000000;"
         offset="0.15517241"
         id="stop4134" />
      <stop
         style="stop-color:#4074ae;stop-opacity:1.0000000;"
         offset="0.75000000"
         id="stop4346" />
      <stop
         style="stop-color:#36486c;stop-opacity:1.0000000;"
         offset="1.0000000"
         id="stop3966" />
    </linearGradient>
    <radialGradient
       r="13.994944"
       fy="33.506763"
       fx="-10.089286"
       cy="33.506763"
       cx="-10.089286"
       gradientTransform="matrix(1,0,0,0.791446,-14.01786,-11.28667)"
       gradientUnits="userSpaceOnUse"
       id="radialGradient4019"
       xlink:href="#linearGradient3993"
       inkscape:collect="always" />
    <radialGradient
       r="14.057444"
       fy="31.329016"
       fx="-10.323107"
       cy="31.329016"
       cx="-10.323107"
       gradientTransform="matrix(1,0,0,0.792374,-19.58761,2.818569)"
       gradientUnits="userSpaceOnUse"
       id="radialGradient4004"
       xlink:href="#linearGradient3993"
       inkscape:collect="always" />
    <radialGradient
       gradientUnits="userSpaceOnUse"
       gradientTransform="matrix(1,0,0,0.792374,0,6.785475)"
       r="14.057444"
       fy="31.329016"
       fx="-10.323107"
       cy="31.329016"
       cx="-10.323107"
       id="radialGradient3999"
       xlink:href="#linearGradient3993"
       inkscape:collect="always" />
    <radialGradient
       gradientUnits="userSpaceOnUse"
       gradientTransform="matrix(0.341185,-0.153831,1.08001,2.395374,-15.42222,-25.62103)"
       r="13.994946"
       fy="24.241488"
       fx="61.662098"
       cy="24.241488"
       cx="61.662098"
       id="radialGradient3943"
       xlink:href="#linearGradient1312"
       inkscape:collect="always" />
    <linearGradient
       id="linearGradient1312">
      <stop
         id="stop1314"
         offset="0"
         style="stop-color:#ffffff;stop-opacity:1;" />
      <stop
         id="stop1316"
         offset="1"
         style="stop-color:#ffffff;stop-opacity:0;" />
    </linearGradient>
    <linearGradient
       id="linearGradient3993">
      <stop
         style="stop-color:#ffffff;stop-opacity:1;"
         offset="0"
         id="stop3995" />
      <stop
         style="stop-color:#000000;stop-opacity:0"
         offset="1"
         id="stop3997" />
    </linearGradient>
    <radialGradient
       inkscape:collect="always"
       xlink:href="#linearGradient2973"
       id="radialGradient3866"
       cx="-22.375"
       cy="18.499998"
       fx="-22.375"
       fy="18.499998"
       r="14.33462"
       gradientTransform="matrix(1,0,0,1.140022,40.17678,1.347091)"
       gradientUnits="userSpaceOnUse" />
    <radialGradient
       gradientUnits="userSpaceOnUse"
       r="12.289036"
       fy="63.965388"
       fx="15.115514"
       cy="63.965388"
       cx="15.115514"
       gradientTransform="scale(1.643990,0.608276)"
       id="radialGradient5000"
       xlink:href="#linearGradient4114"
       inkscape:collect="always" />
    <linearGradient
       id="linearGradient4989">
      <stop
         id="stop4991"
         offset="0.0000000"
         style="stop-color:#d3e9ff;stop-opacity:1.0000000;" />
      <stop
         id="stop4993"
         offset="0.15517241"
         style="stop-color:#d3e9ff;stop-opacity:1.0000000;" />
      <stop
         id="stop4995"
         offset="0.75000000"
         style="stop-color:#4074ae;stop-opacity:1.0000000;" />
      <stop
         id="stop4997"
         offset="1.0000000"
         style="stop-color:#36486c;stop-opacity:1.0000000;" />
    </linearGradient>
    <linearGradient
       id="linearGradient4977">
      <stop
         id="stop4979"
         offset="0.0000000"
         style="stop-color:#ffffff;stop-opacity:1.0000000;" />
      <stop
         id="stop4981"
         offset="1.0000000"
         style="stop-color:#ffffff;stop-opacity:0.16494845;" />
    </linearGradient>
    <linearGradient
       id="linearGradient4825"
       inkscape:collect="always">
      <stop
         id="stop4827"
         offset="0"
         style="stop-color:#ffffff;stop-opacity:1;" />
      <stop
         id="stop4829"
         offset="1"
         style="stop-color:#ffffff;stop-opacity:0;" />
    </linearGradient>
    <radialGradient
       inkscape:collect="always"
       xlink:href="#linearGradient4114"
       id="radialGradient6090"
       gradientUnits="userSpaceOnUse"
       gradientTransform="scale(1.64399,0.608276)"
       cx="15.115514"
       cy="63.965388"
       fx="15.115514"
       fy="63.965388"
       r="12.289036" />
    <radialGradient
       inkscape:collect="always"
       xlink:href="#linearGradient4825"
       id="radialGradient6098"
       gradientUnits="userSpaceOnUse"
       cx="12.071323"
       cy="12.493138"
       fx="12.071323"
       fy="12.493138"
       r="6.7175145" />
    <radialGradient
       inkscape:collect="always"
       xlink:href="#linearGradient2973"
       id="radialGradient6103"
       gradientUnits="userSpaceOnUse"
       gradientTransform="matrix(0.25463,-0.898371,0.979785,0.277703,-18.00903,32.03312)"
       cx="17.903898"
       cy="40.159222"
       fx="17.903898"
       fy="40.159222"
       r="14.33681" />
    <radialGradient
       inkscape:collect="always"
       xlink:href="#linearGradient2973"
       id="radialGradient6106"
       gradientUnits="userSpaceOnUse"
       gradientTransform="matrix(0.583269,-0.431533,0.577146,0.78008,-5.80022,4.004109)"
       cx="12.525543"
       cy="38.09042"
       fx="12.525543"
       fy="38.09042"
       r="14.33681" />
    <radialGradient
       inkscape:collect="always"
       xlink:href="#linearGradient1312"
       id="radialGradient6109"
       gradientUnits="userSpaceOnUse"
       gradientTransform="matrix(0.768231,1.13675,-0.820972,0.554824,-3.72248,-85.07126)"
       cx="65.800331"
       cy="27.16758"
       fx="65.800331"
       fy="27.16758"
       r="12.972491" />
    <radialGradient
       inkscape:collect="always"
       xlink:href="#linearGradient4989"
       id="radialGradient6115"
       cx="16.651781"
       cy="32.187485"
       fx="16.651781"
       fy="32.187485"
       r="17.089519"
       gradientTransform="matrix(1.486175,-1.536108,0.932321,0.902016,-38.10476,31.42646)"
       gradientUnits="userSpaceOnUse" />
  </defs>
  <sodipodi:namedview
     id="base"
     pagecolor="#ffffff"
     bordercolor="#666666"
     borderopacity="0.17254902"
     inkscape:pageopacity="0"
     inkscape:pageshadow="2"
     inkscape:zoom="8"
     inkscape:cx="36.250498"
     inkscape:cy="38.275489"
     inkscape:current-layer="layer1"
     showgrid="false"
     inkscape:grid-bbox="true"
     inkscape:document-units="px"
     inkscape:window-width="1266"
     inkscape:window-height="944"
     inkscape:window-x="124"
     inkscape:window-y="52"
     inkscape:showpageshadow="false" />
  <metadata
     id="metadata4">
    <rdf:RDF>
      <cc:Work
         rdf:about="">
        <dc:format>image/svg+xml</dc:format>
        <dc:type
           rdf:resource="http://purl.org/dc/dcmitype/StillImage" />
        <dc:title>Internet Category</dc:title>
        <dc:creator>
          <cc:Agent>
            <dc:title>Jakub Steiner</dc:title>
          </cc:Agent>
        </dc:creator>
        <dc:contributor>
          <cc:Agent>
            <dc:title>Tuomas Kuosmanen</dc:title>
          </cc:Agent>
        </dc:contributor>
        <cc:license
           rdf:resource="http://creativecommons.org/licenses/by-sa/2.0/" />
        <dc:source>http://jimmac.musichall.cz</dc:source>
        <dc:subject>
          <rdf:Bag>
            <rdf:li>internet</rdf:li>
            <rdf:li>tools</rdf:li>
            <rdf:li>applications</rdf:li>
            <rdf:li>category</rdf:li>
          </rdf:Bag>
        </dc:subject>
      </cc:Work>
      <cc:License
         rdf:about="http://creativecommons.org/licenses/by-sa/2.0/">
        <cc:permits
           rdf:resource="http://web.resource.org/cc/Reproduction" />
        <cc:permits
           rdf:resource="http://web.resource.org/cc/Distribution" />
        <cc:requires
           rdf:resource="http://web.resource.org/cc/Notice" />
        <cc:requires
           rdf:resource="http://web.resource.org/cc/Attribution" />
        <cc:permits
           rdf:resource="http://web.resource.org/cc/DerivativeWorks" />
        <cc:requires
           rdf:resource="http://web.resource.org/cc/ShareAlike" />
      </cc:License>
    </rdf:RDF>
  </metadata>
  <g
     id="layer1"
     inkscape:label="Layer 1"
     inkscape:groupmode="layer">
    <path
       sodipodi:type="arc"
       style="fill:url(#radialGradient6090);fill-opacity:1;stroke:none;stroke-opacity:1"
       id="path4112"
       sodipodi:cx="24.849752"
       sodipodi:cy="38.908627"
       sodipodi:rx="20.203051"
       sodipodi:ry="7.4751287"
       d="M 45.052803 38.908627 A 20.203051 7.4751287 0 1 1  4.6467018,38.908627 A 20.203051 7.4751287 0 1 1  45.052803 38.908627 z"
       transform="matrix(0.947409,0,0,1.17786,1.244375,-6.853427)"
       inkscape:export-xdpi="480"
       inkscape:export-ydpi="480" />
    <path
       style="fill:url(#radialGradient6115);fill-opacity:1;fill-rule:evenodd;stroke:none;stroke-width:0.07523891px;stroke-linecap:butt;stroke-linejoin:miter;stroke-opacity:1"
       d="M 23.942923,0.9561338 L 37.330543,18.266721 C 46.998995,29.84687 41.49692,43.923891 26.7742,45.000491 C 6.0597413,45.582655 6.5086231,27.37483 11.255313,18.609381 L 23.942923,0.9561338 z "
       id="path2069"
       sodipodi:nodetypes="ccccc" />
    <path
       style="fill:#1b4075;fill-opacity:1;fill-rule:evenodd;stroke:none;stroke-width:0.07523891px;stroke-linecap:butt;stroke-linejoin:miter;stroke-opacity:1"
       d="M 35.111358,26.143133 C 28.972772,13.030586 17.560684,17.697957 17.274449,26.949974 C 16.894738,39.223415 34.748874,37.615429 36.715244,41.468778 C 28.821643,47.675479 14.973233,45.226508 10.962289,39.715204 C 6.9574776,34.212326 7.2383598,25.630263 10.784249,19.587632 C 24.158625,0.978654 39.749127,24.383766 35.111358,26.143133 z "
       id="path2969"
       sodipodi:nodetypes="cscscc" />
    <path
       style="fill:none;fill-opacity:1;fill-rule:evenodd;stroke:white;stroke-width:1.1000706;stroke-linecap:butt;stroke-linejoin:miter;stroke-miterlimit:4;stroke-dasharray:none;stroke-opacity:0.36612022"
       d="M 23.996861,3.5433428 L 36.057351,19.151045 C 44.769741,29.58253 39.419346,42.414092 26.125181,43.508521 C 7.3917365,44.015286 7.4275065,28.119221 12.17284,20.333442 L 23.996861,3.5433428 z "
       id="path2071"
       sodipodi:nodetypes="ccccc" />
    <path
       style="opacity:0.46;fill:url(#radialGradient6109);fill-opacity:1;fill-rule:evenodd;stroke:none;stroke-width:0.07523891px;stroke-linecap:butt;stroke-linejoin:miter;stroke-opacity:1"
       d="M 23.940758,0.96491709 L 34.727367,14.909752 C 42.647208,24.392311 40.447304,20.283975 28.362481,21.278846 C 25.083165,11.203805 18.13871,11.859899 13.523802,15.675236 L 23.940758,0.96491709 z "
       id="path3945"
       sodipodi:nodetypes="ccccc" />
    <path
       style="fill:url(#radialGradient6106);fill-opacity:1;fill-rule:evenodd;stroke:none;stroke-width:0.07523891px;stroke-linecap:butt;stroke-linejoin:miter;stroke-opacity:1"
       d="M 35.159701,26.173667 C 29.021115,13.06112 18.734027,17.978491 18.447792,27.230508 C 18.068081,39.503949 34.797217,37.645963 36.763587,41.499312 C 28.869986,47.706013 15.021576,45.257042 11.010632,39.745738 C 7.0058197,34.24286 7.2867027,25.660797 10.832592,19.618166 C 24.206968,1.0091879 39.79747,24.4143 35.159701,26.173667 z "
       id="path3868"
       sodipodi:nodetypes="cscscc" />
    <path
       style="fill:url(#radialGradient6103);fill-opacity:1;fill-rule:evenodd;stroke:none;stroke-width:0.07523891px;stroke-linecap:butt;stroke-linejoin:miter;stroke-opacity:1"
       d="M 35.120795,26.14195 C 28.553327,12.814962 15.685968,17.224233 15.399733,26.47625 C 15.020022,38.749691 32.874158,37.141705 34.840528,40.995054 C 26.946927,47.201755 13.098517,44.752784 9.0875727,39.24148 C 5.0827617,33.738602 5.3636437,25.156539 8.9095327,19.113908 C 22.315509,0.47615954 40.03233,23.660113 35.120795,26.14195 z "
       id="path4874"
       sodipodi:nodetypes="cscscc" />
    <path
       transform="matrix(-0.829136,1.052307,1.239307,7.58326e-2,26.32898,25.58605)"
       inkscape:r_cy="true"
       inkscape:r_cx="true"
       d="M 18.788838 12.493138 A 6.7175145 6.7175145 0 1 1  5.3538089,12.493138 A 6.7175145 6.7175145 0 1 1  18.788838 12.493138 z"
       sodipodi:ry="6.7175145"
       sodipodi:rx="6.7175145"
       sodipodi:cy="12.493138"
       sodipodi:cx="12.071323"
       id="path4941"
       style="opacity:0.21999996;color:black;fill:url(#radialGradient6098);fill-opacity:1;fill-rule:evenodd;stroke:none;stroke-width:1;stroke-linecap:round;stroke-linejoin:round;marker:none;marker-start:none;marker-mid:none;marker-end:none;stroke-miterlimit:4;stroke-dasharray:none;stroke-dashoffset:0;stroke-opacity:1;visibility:visible;display:inline;overflow:visible"
       sodipodi:type="arc" />
  </g>
</svg>

<svg xmlns="http://www.w3.org/2000/svg" xmlns:xlink="http://www.w3.org/1999/xlink" width="48" height="48"><defs><radialGradient xlink:href="#a" id="f" cx="15.116" cy="63.965" r="12.289" fx="15.116" fy="63.965" gradientTransform="scale(1.64399 .60828)" gradientUnits="userSpaceOnUse"/><radialGradient xlink:href="#b" id="k" cx="12.071" cy="12.493" r="6.718" fx="12.071" fy="12.493" gradientUnits="userSpaceOnUse"/><radialGradient xlink:href="#c" id="j" cx="17.904" cy="40.159" r="14.337" fx="17.904" fy="40.159" gradientTransform="matrix(.25463 -.89837 .97979 .2777 -18.009 32.033)" gradientUnits="userSpaceOnUse"/><radialGradient xlink:href="#c" id="i" cx="12.526" cy="38.09" r="14.337" fx="12.526" fy="38.09" gradientTransform="matrix(.58327 -.43153 .57715 .78008 -5.8 4.004)" gradientUnits="userSpaceOnUse"/><radialGradient xlink:href="#d" id="h" cx="65.8" cy="27.168" r="12.972" fx="65.8" fy="27.168" gradientTransform="matrix(.76823 1.13675 -.82097 .55482 -3.722 -85.071)" gradientUnits="userSpaceOnUse"/><radialGradient xlink:href="#e" id="g" cx="16.652" cy="32.187" r="17.09" fx="16.652" fy="32.187" gradientTransform="matrix(1.48618 -1.5361 .93232 .90202 -38.105 31.426)" gradientUnits="userSpaceOnUse"/><linearGradient id="c"><stop offset="0" style="stop-color:#eeeeec;stop-opacity:1"/><stop offset="1" style="stop-color:#eeeeec;stop-opacity:0"/></linearGradient><linearGradient id="a"><stop offset="0" style="stop-color:#000;stop-opacity:1"/><stop offset="1" style="stop-color:#000;stop-opacity:0"/></linearGradient><linearGradient id="d"><stop offset="0" style="stop-color:#fff;stop-opacity:1"/><stop offset="1" style="stop-color:#fff;stop-opacity:0"/></linearGradient><linearGradient id="e"><stop offset="0" style="stop-color:#d3e9ff;stop-opacity:1"/><stop offset=".155" style="stop-color:#d3e9ff;stop-opacity:1"/><stop offset=".75" style="stop-color:#4074ae;stop-opacity:1"/><stop offset="1" style="stop-color:#36486c;stop-opacity:1"/></linearGradient><linearGradient id="b"><stop offset="0" style="stop-color:#fff;stop-opacity:1"/><stop offset="1" style="stop-color:#fff;stop-opacity:0"/></linearGradient></defs><path d="M45.053 38.909a20.203 7.475 0 1 1-40.406 0 20.203 7.475 0 1 1 40.406 0" style="fill:url(#f);fill-opacity:1;stroke:none;stroke-opacity:1" transform="matrix(.9474 0 0 1.17786 1.244 -6.853)"/><path d="m23.943.956 13.388 17.31C46.999 29.847 41.497 43.925 26.774 45 6.06 45.583 6.51 27.375 11.255 18.61z" style="fill:url(#g);fill-opacity:1;fill-rule:evenodd;stroke:none;stroke-width:.07523891px;stroke-linecap:butt;stroke-linejoin:miter;stroke-opacity:1"/><path d="M35.111 26.143c-6.138-13.112-17.55-8.445-17.837.807-.38 12.273 17.475 10.665 19.441 14.519-7.893 6.206-21.742 3.758-25.753-1.754-4.005-5.503-3.724-14.085-.178-20.127C24.16.978 39.75 24.384 35.111 26.143" style="fill:#1b4075;fill-opacity:1;fill-rule:evenodd;stroke:none;stroke-width:.07523891px;stroke-linecap:butt;stroke-linejoin:miter;stroke-opacity:1"/><path d="m23.997 3.543 12.06 15.608c8.713 10.432 3.362 23.263-9.932 24.358-18.733.506-18.697-15.39-13.952-23.176z" style="fill:none;fill-opacity:1;fill-rule:evenodd;stroke:#fff;stroke-width:1.1000706;stroke-linecap:butt;stroke-linejoin:miter;stroke-miterlimit:4;stroke-dasharray:none;stroke-opacity:.36612022"/><path d="M23.94.965 34.728 14.91c7.92 9.482 5.72 5.374-6.365 6.369-3.279-10.075-10.223-9.42-14.838-5.604z" style="opacity:.46;fill:url(#h);fill-opacity:1;fill-rule:evenodd;stroke:none;stroke-width:.07523891px;stroke-linecap:butt;stroke-linejoin:miter;stroke-opacity:1"/><path d="M35.16 26.174c-6.14-13.114-16.426-8.196-16.712 1.056-.38 12.273 16.35 10.415 18.316 14.268-7.894 6.207-21.742 3.758-25.753-1.753-4.005-5.503-3.724-14.085-.178-20.128C24.207 1.01 39.797 24.414 35.16 26.174" style="fill:url(#i);fill-opacity:1;fill-rule:evenodd;stroke:none;stroke-width:.07523891px;stroke-linecap:butt;stroke-linejoin:miter;stroke-opacity:1"/><path d="M35.12 26.142c-6.567-13.327-19.434-8.918-19.72.334-.38 12.274 17.474 10.666 19.44 14.52-7.893 6.206-21.741 3.757-25.752-1.755-4.005-5.502-3.724-14.084-.178-20.127C22.316.476 40.032 23.66 35.12 26.142" style="fill:url(#j);fill-opacity:1;fill-rule:evenodd;stroke:none;stroke-width:.07523891px;stroke-linecap:butt;stroke-linejoin:miter;stroke-opacity:1"/><path d="M18.789 12.493a6.718 6.718 0 1 1-13.435 0 6.718 6.718 0 1 1 13.435 0" style="opacity:.21999996;color:#000;fill:url(#k);fill-opacity:1;fill-rule:evenodd;stroke:none;stroke-width:1;stroke-linecap:round;stroke-linejoin:round;marker:none;marker-start:none;marker-mid:none;marker-end:none;stroke-miterlimit:4;stroke-dasharray:none;stroke-dashoffset:0;stroke-opacity:1;visibility:visible;display:inline;overflow:visible" transform="matrix(-.82914 1.0523 1.2393 .07583 26.329 25.586)"/></svg>
